X: 2
T: Jamesy Gannon's Barndance No. 1
T: Lynch's BArndance No. 1
S: Michael Gorman
M: 4/4
L: 1/8
R: barndance
K: G Major
|: dc |\
B2 B2 BGBd | c2 cB c2 e2 | dgfe dcBA | GFGA BGDG |
B2 BA B2 Bd | c2 cB c3 e | d2 ge d2 cA | G2 g2 g2 :|
|: dg |\
b2 b2 b2 ag | fefg a2 b2 | c'2 c'2 c'efa | gfga bgdg |
b2 b2 b2 ag | fefg a2 b2 | c'2 c'2 c'efa | g2 gf g2 :|
